cssgg/format-italic.svg

<svg
  width="24"
  height="24"
  viewBox="0 0 24 24"
  fill="none"
  xmlns="http://www.w3.org/2000/svg"
>
  <path
    d="M11.4903 5.45801H17.4903L16.7788 7.32716H14.7788L11.2212 16.6729H13.2212L12.5097 18.5421H6.5097L7.22122 16.6729H9.22122L12.7788 7.32716H10.7788L11.4903 5.45801Z"
    fill="currentColor"
  />
</svg>

<svg viewBox="0 0 24 24" xmlns="http://www.w3.org/2000/svg"><path d="M11.49 5.45h6l-.72 1.86h-2l-3.56 9.34h2l-.72 1.86h-6l.71-1.87h2l3.55-9.35h-2l.71-1.87Z"/></svg>
